X:1
T:Are You Ready?
T:Are You Ready?
T:Cary Samuel Colburn
T:Cary Samuel Colburn, 1901
T:Public Domain Courtesy of the Cyber Hymnal™
T:Public Domain Courtesy of the Cyber Hymnal™
C:Cary Samuel Colburn
Z:Public Domain
Z:Courtesy of the Cyber Hymnal™
%%score ( 1 2 ) ( 3 4 )
L:1/8
Q:1/4=92
M:4/4
K:Eb
V:1 treble 
V:2 treble 
V:3 bass 
V:4 bass 
V:1
 [EG]>[EA] | [EB]>[E=A] [Ec]>[EB] [EB]<[EG] [EG]>[DF] | [CE]>[CE] [CE]>[CE] [B,E]2 [B,E]>[B,F] | %3
w: 1.~I am|watch- ing, I am wait- ing For the|com- ing of the Lord, For that|
w: 2.~He may|call me in the morn- ing, Or at|noon the call may come, He may|
w: 3.~God has|giv- en all this prom- ise, Full of|grace and love di- vine, Who- so-|
 [EG]>[EG] [EG]>[EG] [Ec]>[EB] [EB]>[EG] | [DF]6 [EG]>[EA] | %5
w: com- ing in whose glo- ry I shall|share; And the|
w: call me in the dark- ness of the|night; Be it|
w: ev- er will be- lieve on Christ the|Son, Shall be|
 [EB]>[E=A] [Ec]>[EB] [EB]<[EG] [EG]>[DF] | E>E [EA]>[EA] !fermata![Ec]2 [Ec]>[Ec] | %7
w: times are fast ful- fill- ing As re-|cord- ed in His Word, For His|
w: morn- ing, noon, or ev- ening, I’ll be|rea- dy then to go, There to|
w: saved— oh, pre- cious prom- ise, I am|His, and He is mine, And with|
 [EB]>[EG] E>[EF] [EG]>[EB] [DF]>[DG] | E6 ||"^Refrain" [EB]>[E_d] | %10
w: com- ing with the an- gels in the|air.||
w: walk with Him in gar- ments pure and|white.|Are you|
w: Him I soon shall be, the vic- tory|won.||
 [Ec]<[Ec] [Ec]>[Ec] [Ec]/ [Ec]3 [Ec]/ | [Ec]>[EB] [EB]>[EG] [EB]2 [GB]>[GB] | %12
w: ||
w: rea- dy for His com- ing, If|He should come to- night, Should the|
w: ||
 [F=A]>[F^G] [FA]>[FG] [FA]2 [E=G]>[EF] | [DF] !fermata![DB]4 z [EG]>[EA] | %14
w: ||
w: an- gef of the Lord sound the|warn- ing? Oh, how|
w: ||
 [EB]>[E=A] [Ec]>[EB] [EB]<[EG] [EG]>[DF] | E>E [EG]>[Ec] !fermata![Ee]2 [EA]>[EA] | %16
w: ||
w: sweet to meet our loved ones In the|ma- ny man- sions bright, Should the|
w: ||
 [EB]>B G>E !fermata![DB]2 [EG]>[B,E] | [B,F]4 !fermata![B,E]2 |] %18
w: ||
w: Sav- ior call us home in the|morn- ing.|
w: ||
V:2
 x2 | x8 | x8 | x8 | x8 | x8 | E>E x6 | x2 E3/2 x9/2 | E6 || x2 | x8 | x8 | x8 | x8 | x8 | E>E x6 | %16
 x3/2 B/ G>E x4 | x6 |] %18
V:3
 E,>[E,F,] | [E,G,]>[E,^F,] [E,A,]>[E,G,] [E,G,]<[E,B,] [E,B,]>[B,,A,] | %2
 [C,G,]>[C,G,] [A,,A,]>[A,,A,] [E,G,]2 [E,G,]>[E,A,] | %3
 [E,B,]>[E,B,] [E,B,]>[E,B,] [E,A,]>[E,G,] [E,G,]>[E,B,] | [B,,B,]6 [E,B,]>[E,F,] | %5
 [E,G,]>[E,^F,] [E,A,]>[E,G,] [E,G,]<[E,B,] [E,B,]>[B,,A,] | %6
 [C,G,]>[C,G,] [A,,C]>[A,,C] !fermata![A,,A,]2 [A,,A,]>[C,A,] | %7
 [E,G,]>[E,B,] [G,B,]>[A,C] B,>[B,,G,] [B,,A,]>[B,,B,] | [E,G,]6 || [E,G,]>[E,G,] | %10
 [A,,A,]<[A,,A,] [A,,A,]>[A,,A,] [A,,A,]/ [A,,A,]3 [C,A,]/ | %11
 [E,A,]>[E,G,] [E,G,]>[E,B,] [E,G,]2 [E,B,]>[E,_D] | %12
 [F,C]>[F,=B,] [F,C]>[F,B,] [F,C]2 [F,_B,]>[F,=A,] | [B,,B,] !fermata![B,,F,]4 z E,>[E,F,] | %14
 [E,G,]>[E,^F,] [E,A,]>[E,G,] [E,G,]<[E,B,] [E,B,]>[B,,A,] | %15
 [C,G,]>[C,G,] [C,G,]>[C,G,] [_C,=A,]2 [C,^F,]>[C,F,] | [B,,G,]>B, G,>E, [B,,F,]2 [B,,B,]>[B,,G,] | %17
 A,4 [E,G,]2 |] %18
V:4
 E,3/2 x/ | x8 | x8 | x8 | x8 | x8 | x8 | x4 B,3/2 x5/2 | x6 || x2 | x8 | x8 | x8 | x6 E,3/2 x/ | %14
 x8 | x8 | x3/2 B,/ G,>E, x4 | (B,,2 C,D,) x2 |] %18

